packages/ui-icons/svg/Line/tag.svg

<svg viewBox="0 0 1920 1920" version="1.1" xmlns="http://www.w3.org/2000/svg">
    <path d="M1152.82133,372.968 C1150.368,390.461333 1148.128,408.061333 1148.128,426.301333 C1148.128,444.541333 1150.368,462.461333 1153.03467,480.274667 C1096.82133,478.994667 1040.07467,499.368 997.301333,542.141333 C914.208,625.234667 914.208,760.701333 997.301333,843.794667 C1038.90133,885.394667 1093.51467,906.194667 1148.128,906.194667 C1202.74133,906.194667 1257.35467,885.394667 1298.95467,843.794667 C1382.048,760.701333 1382.048,625.234667 1298.95467,542.141333 C1290.74133,533.928 1281.568,526.994667 1272.39467,520.488 L1271.648,518.461333 C1260.55467,488.594667 1254.79467,457.554667 1254.79467,426.301333 C1254.79467,407.848 1257.14133,390.248 1260.98133,372.968 L1414.79467,372.968 C1444.128,372.968 1468.128,396.968 1468.128,426.301333 L1468.128,1051.79467 L829.728,1690.30133 L150.794667,1011.368 L789.301333,372.968 L1152.82133,372.968 Z M1148.128,586.408 C1162.95467,586.408 1177.35467,590.034667 1191.11467,596.114667 C1207.11467,627.794667 1227.59467,656.594667 1252.55467,682.194667 C1255.86133,713.021333 1247.11467,744.808 1223.54133,768.381333 C1181.83467,810.088 1114.42133,810.088 1072.71467,768.381333 C1031.11467,726.781333 1031.11467,659.154667 1072.71467,617.554667 C1093.51467,596.754667 1120.82133,586.408 1148.128,586.408 Z M1521.46133,52.968 C1375.22133,52.968 1244.98133,138.301333 1185.78133,266.301333 L745.141333,266.301333 L-0.032,1011.368 L829.728,1841.128 L1574.79467,1095.95467 L1574.79467,426.301333 C1574.79467,338.088 1503.008,266.301333 1414.79467,266.301333 L1308.448,266.301333 C1357.30133,200.594667 1435.59467,159.634667 1521.46133,159.634667 C1668.55467,159.634667 1788.128,279.208 1788.128,426.301333 L1894.79467,426.301333 C1894.79467,220.434667 1727.328,52.968 1521.46133,52.968 L1521.46133,52.968 Z" stroke="none" stroke-width="1" fill-rule="evenodd"/>
</svg>

<svg viewBox="0 0 1920 1920" version="1.1" xmlns="http://www.w3.org/2000/svg">
    <path d="M1414.795 372.968c29.333 0 53.333 24 53.333 53.333v625.494l-638.4 638.506-678.933-678.933 638.506-638.4h363.52c-2.453 17.493-4.693 35.093-4.693 53.333 0 18.24 2.24 36.16 4.907 53.974-56.214-1.28-112.96 19.093-155.734 61.866-83.093 83.094-83.093 218.56 0 301.654 41.6 41.6 96.214 62.4 150.827 62.4s109.227-20.8 150.827-62.4c83.093-83.094 83.093-218.56 0-301.654-8.214-8.213-17.387-15.146-26.56-21.653l-.747-2.027c-11.093-29.866-16.853-60.906-16.853-92.16 0-18.453 2.346-36.053 6.186-53.333h153.814zm-223.68 223.147c16 31.68 36.48 60.48 61.44 86.08 3.306 30.826-5.44 62.613-29.014 86.186-41.706 41.707-109.12 41.707-150.826 0-41.6-41.6-41.6-109.226 0-150.826 20.8-20.8 48.106-31.147 75.413-31.147 14.827 0 29.227 3.627 42.987 9.707zM1521.46 52.968c-146.24 0-276.48 85.333-335.68 213.333h-440.64L-.032 1011.368l829.76 829.76 745.067-745.173V426.3c0-88.213-71.787-160-160-160h-106.347c48.853-65.706 127.147-106.666 213.013-106.666 147.094 0 266.667 119.573 266.667 266.666h106.667c0-205.866-167.467-373.333-373.334-373.333z" stroke="none" stroke-width="1" fill-rule="evenodd"/>
</svg>
